dist/images/logo-desktop-orange.svg

<svg width="284" height="124" viewBox="0 0 284 124" fill="none" xmlns="http://www.w3.org/2000/svg">
<path d="M34.6748 72.5002C34.3094 72.5002 34.1268 72.7014 34.1268 73.1037V81.8816C34.1268 82.2839 34.3094 82.4851 34.6748 82.4851H51.9916V91.2081H34.6748C34.3094 91.2081 34.1268 91.391 34.1268 91.7567V101.906H25.4136V63.6675H56.4852V72.5002H34.6748Z" fill="#FC9908"/>
<path d="M255.278 67.6174C259.187 70.9092 261.142 75.9382 261.142 82.7044C261.142 89.6536 259.169 94.774 255.223 98.0657C252.081 100.626 247.643 101.906 241.907 101.906H225.412V63.3931H241.907C247.497 63.3931 251.954 64.8012 255.278 67.6174ZM241.907 93.1282C243.88 93.1282 245.524 92.9636 246.839 92.6344C248.191 92.2687 249.268 91.6835 250.072 90.8789C250.912 90.0376 251.497 88.9587 251.826 87.642C252.191 86.2887 252.374 84.6429 252.374 82.7044C252.374 78.7178 251.442 75.9199 249.579 74.3106C247.898 72.9207 245.341 72.2258 241.907 72.2258H234.619C234.326 72.2258 234.18 72.3721 234.18 72.6647V92.6893C234.18 92.9819 234.326 93.1282 234.619 93.1282H241.907Z" fill="#FC9908"/>
<path d="M260.738 20.7068V59.1649H251.97V43.1453C251.97 43.0355 251.897 42.9624 251.751 42.9258C251.641 42.8892 251.55 42.9258 251.477 43.0355L246.599 53.2398H239.749L234.817 43.0904C234.744 42.9441 234.653 42.8892 234.543 42.9258C234.434 42.9624 234.379 43.0538 234.379 43.2001V59.1649H225.611V20.7068H233.776L242.928 39.689C243.001 39.7621 243.074 39.7987 243.147 39.7987C243.257 39.7987 243.33 39.7621 243.366 39.689L252.518 20.7068H260.738Z" fill="#FC9908"/>
<path d="M44.0042 20.0496C46.3058 20.0496 48.4612 20.4885 50.4706 21.3662C52.5164 22.244 54.3066 23.451 55.841 24.9871C57.3754 26.4867 58.581 28.2605 59.4578 30.3087C60.3346 32.3569 60.773 34.5331 60.773 36.8373C60.773 38.7757 60.4442 40.6593 59.7866 42.488C59.129 44.2802 58.1791 45.926 56.937 47.4256C55.0738 49.7298 52.7356 51.4122 49.9226 52.4729L52.2242 58.5625H42.7986L41.045 53.8993C40.9719 53.6798 40.8258 53.5701 40.6066 53.5701H33.099C32.8067 53.5701 32.6606 53.7347 32.6606 54.0639V58.5625H23.8926V20.0496H44.0042ZM43.9494 44.7922C45.0454 44.7922 46.0683 44.5911 47.0182 44.1888C48.0046 43.7499 48.8631 43.183 49.5938 42.488C50.3244 41.7565 50.8907 40.9153 51.2926 39.9644C51.731 38.9769 51.9502 37.9345 51.9502 36.8373C51.9502 35.74 51.7492 34.7159 51.3474 33.765C50.9455 32.7775 50.3792 31.918 49.6486 31.1865C48.9179 30.455 48.0594 29.8881 47.073 29.4858C46.1231 29.0469 45.1002 28.8274 44.0042 28.8274H33.099C32.8067 28.8274 32.6606 28.992 32.6606 29.3212V44.3533C32.6606 44.6459 32.8067 44.7922 33.099 44.7922H43.9494Z" fill="#FC9908"/>
<path d="M100.374 58.5625H91.0577L89.6329 54.6674C89.5598 54.4113 89.3954 54.2833 89.1397 54.2833H72.5901C72.3709 54.2833 72.2065 54.4113 72.0969 54.6674L70.7269 58.5625H61.4109L75.2205 20.1044H86.5641L100.374 58.5625ZM75.6589 44.7922C75.5858 44.9751 75.6041 45.1397 75.7137 45.286C75.8233 45.4323 75.9694 45.5054 76.1521 45.5054H85.6325C86.1074 45.5054 86.2718 45.2677 86.1257 44.7922L81.4129 31.6254C81.3033 31.3694 81.1206 31.2414 80.8649 31.2414C80.6091 31.2414 80.4448 31.3694 80.3717 31.6254L75.6589 44.7922Z" fill="#FC9908"/>
<path d="M135.331 20.1044V58.5625H127.549L113.794 37.2762C113.758 37.203 113.721 37.1847 113.685 37.2213C113.648 37.2213 113.63 37.2579 113.63 37.331V58.5625H104.862V20.1044H112.808L126.398 40.2387C126.435 40.3119 126.471 40.3484 126.508 40.3484C126.544 40.3119 126.563 40.257 126.563 40.1838V20.1044H135.331Z" fill="#FC9908"/>
<path d="M171.771 24.2739C175.68 27.5656 177.634 32.5946 177.634 39.3609C177.634 46.3101 175.662 51.4305 171.716 54.7222C168.574 57.2824 164.135 58.5625 158.4 58.5625H141.905V20.0496H158.4C163.989 20.0496 168.446 21.4577 171.771 24.2739ZM158.4 49.7847C160.372 49.7847 162.016 49.6201 163.332 49.2909C164.683 48.9252 165.761 48.34 166.565 47.5353C167.405 46.6941 167.99 45.6152 168.318 44.2985C168.684 42.9452 168.866 41.2994 168.866 39.3609C168.866 35.3743 167.935 32.5763 166.072 30.9671C164.391 29.5772 161.834 28.8823 158.4 28.8823H151.111C150.819 28.8823 150.673 29.0286 150.673 29.3212V49.3458C150.673 49.6384 150.819 49.7847 151.111 49.7847H158.4Z" fill="#FC9908"/>
<path d="M275.177 118.87H8.82326C6.72047 118.87 5 117.148 5 115.043V8.82757C5 6.72241 6.72047 5 8.82326 5H275.177C277.28 5 279 6.72241 279 8.82757V115.043C279 117.148 277.28 118.87 275.177 118.87Z" stroke="#FC9908" stroke-width="10" stroke-miterlimit="10"/>
<path d="M169.878 97.6591H69.1987C67.096 97.6591 65.3755 95.9367 65.3755 93.8316V71.5041C65.3755 69.3989 67.096 67.6765 69.1987 67.6765H169.878C171.981 67.6765 173.701 69.3989 173.701 71.5041V93.8316C173.701 95.9367 171.981 97.6591 169.878 97.6591Z" stroke="#FC9908" stroke-width="10" stroke-miterlimit="10"/>
<path d="M186.445 94.1505V28.1249C186.445 26.0198 188.166 24.2974 190.269 24.2974H212.571C214.674 24.2974 216.394 26.0198 216.394 28.1249V94.1505C216.394 96.2556 214.674 97.978 212.571 97.978H190.269C188.166 97.978 186.445 96.2556 186.445 94.1505Z" stroke="#FC9908" stroke-width="10" stroke-miterlimit="10"/>
</svg>

<svg width="284" height="124" fill="none" xmlns="http://www.w3.org/2000/svg"><path d="M34.675 72.5c-.366 0-.548.201-.548.604v8.778c0 .402.182.603.548.603h17.317v8.723H34.675c-.366 0-.548.183-.548.549v10.149h-8.713V63.667h31.071V72.5h-21.81zm220.603-4.883c3.909 3.292 5.864 8.321 5.864 15.087 0 6.95-1.973 12.07-5.919 15.362-3.142 2.56-7.58 3.84-13.316 3.84h-16.495V63.393h16.495c5.59 0 10.047 1.408 13.371 4.224zm-13.371 25.511c1.973 0 3.617-.164 4.932-.494 1.352-.365 2.429-.95 3.233-1.755.84-.841 1.425-1.92 1.754-3.237.365-1.353.548-3 .548-4.938 0-3.986-.932-6.784-2.795-8.393-1.681-1.39-4.238-2.085-7.672-2.085h-7.288c-.293 0-.439.146-.439.439v20.024c0 .293.146.44.439.44h7.288zm18.831-72.421v38.458h-8.768v-16.02c0-.11-.073-.183-.219-.22-.11-.036-.201 0-.274.11l-4.878 10.205h-6.85l-4.932-10.15c-.073-.146-.164-.2-.274-.164-.109.036-.164.128-.164.274v15.965h-8.768V20.707h8.165l9.152 18.982c.073.073.146.11.219.11.11 0 .183-.037.219-.11l9.152-18.982h8.22zM44.004 20.05c2.302 0 4.457.438 6.467 1.316a16.969 16.969 0 0 1 5.37 3.621c1.534 1.5 2.74 3.274 3.617 5.322.877 2.048 1.315 4.224 1.315 6.528 0 1.939-.329 3.822-.986 5.651a16.725 16.725 0 0 1-2.85 4.938c-1.863 2.304-4.201 3.986-7.014 5.047l2.301 6.09H42.8l-1.754-4.664c-.073-.22-.22-.329-.438-.329H33.1c-.292 0-.438.165-.438.494v4.498h-8.768V20.05h20.111zm-.055 24.742a7.787 7.787 0 0 0 3.07-.603 9.019 9.019 0 0 0 2.575-1.701 7.88 7.88 0 0 0 1.699-2.524c.438-.987.657-2.03.657-3.127a7.812 7.812 0 0 0-.603-3.072 7.73 7.73 0 0 0-1.698-2.579 7.718 7.718 0 0 0-2.576-1.7 7.227 7.227 0 0 0-3.069-.659H33.1c-.292 0-.438.165-.438.494v15.032c0 .293.146.44.438.44h10.85zm56.425 13.771h-9.316l-1.425-3.896c-.073-.256-.238-.384-.493-.384H72.59c-.22 0-.383.128-.493.384l-1.37 3.895H61.41l13.81-38.458h11.343l13.81 38.459zm-24.715-13.77a.478.478 0 0 0 .055.493.52.52 0 0 0 .438.22h9.48c.475 0 .64-.238.494-.714l-4.713-13.167c-.11-.256-.292-.384-.548-.384-.256 0-.42.128-.493.384l-4.713 13.167zm59.672-24.689v38.459h-7.782l-13.755-21.287c-.036-.073-.073-.091-.109-.055-.037 0-.055.037-.055.11v21.231h-8.768V20.105h7.946l13.59 20.135c.037.073.073.11.11.11.036-.037.055-.092.055-.165v-20.08h8.768zm36.44 4.17c3.909 3.292 5.863 8.32 5.863 15.087 0 6.95-1.972 12.07-5.918 15.361-3.142 2.56-7.581 3.84-13.316 3.84h-16.495V20.05H158.4c5.589 0 10.046 1.408 13.371 4.224zM158.4 49.784c1.972 0 3.616-.164 4.932-.493 1.351-.366 2.429-.951 3.233-1.756.84-.84 1.425-1.92 1.753-3.236.366-1.354.548-3 .548-4.938 0-3.987-.931-6.785-2.794-8.394-1.681-1.39-4.238-2.085-7.672-2.085h-7.289c-.292 0-.438.147-.438.44v20.024c0 .292.146.439.438.439h7.289z" fill="#FC9908"/><path d="M275.177 118.87H8.823A3.836 3.836 0 0 1 5 115.043V8.828A3.837 3.837 0 0 1 8.823 5h266.354A3.836 3.836 0 0 1 279 8.828v106.215a3.836 3.836 0 0 1-3.823 3.827z" stroke="#FC9908" stroke-width="10" stroke-miterlimit="10"/><path d="M169.878 97.66H69.198a3.837 3.837 0 0 1-3.822-3.828V71.504a3.837 3.837 0 0 1 3.823-3.828h100.679a3.836 3.836 0 0 1 3.823 3.828v22.328a3.836 3.836 0 0 1-3.823 3.827zm16.567-3.51V28.125a3.837 3.837 0 0 1 3.824-3.828h22.302a3.836 3.836 0 0 1 3.823 3.828V94.15a3.836 3.836 0 0 1-3.823 3.828h-22.302a3.837 3.837 0 0 1-3.824-3.828z" stroke="#FC9908" stroke-width="10" stroke-miterlimit="10"/></svg>
